arquivos/iconeslink/tiktok.svg

<svg width="98" height="99" viewBox="0 0 98 99" fill="none" xmlns="http://www.w3.org/2000/svg">
<g clip-path="url(#clip0_288_23)">
<path d="M49.001 99.002C76.0635 99.002 98.002 76.8396 98.002 49.501C98.002 22.1623 76.0635 0 49.001 0C21.9385 0 0 22.1623 0 49.501C0 76.8396 21.9385 99.002 49.001 99.002Z" fill="#8C3EEF"/>
<path d="M40.826 76.9448C39.4788 76.7594 38.1277 76.5838 36.8429 76.1164C30.4115 73.7732 26.4129 69.2643 25.3254 62.4103C23.8317 52.9941 30.556 44.4891 39.553 43.1459C41.1188 42.9132 42.6828 42.8955 44.2525 43.0631C44.6196 43.1026 44.7778 43.2564 44.7758 43.641C44.768 46.355 44.7641 49.069 44.7778 51.783C44.7797 52.2603 44.602 52.3018 44.1959 52.1992C39.6135 51.0394 35.2458 53.854 34.334 58.5424C33.4476 63.0986 36.9503 67.6095 41.525 67.9507C45.6974 68.2623 49.5886 65.284 50.0982 60.8106C50.149 60.3688 50.1334 59.9191 50.1334 59.4734C50.1373 47.3688 50.1373 35.2623 50.1392 23.1578C50.1392 22.9605 50.149 22.7653 50.1392 22.568C50.1216 22.1992 50.2915 22.0611 50.6488 22.0651C51.5684 22.0769 52.4861 22.0671 53.4057 22.0671C55.1024 22.0671 56.7991 22.0828 58.4958 22.0572C58.98 22.0493 59.1538 22.2308 59.1733 22.6982C59.3197 26.1479 60.6142 29.1085 62.9767 31.5818C65.2025 33.9132 67.9262 35.2761 71.1145 35.6706C71.5343 35.7219 71.958 35.7653 72.3797 35.7692C72.7488 35.7732 72.8757 35.9369 72.8737 36.2919C72.8679 38.9527 72.8639 41.6134 72.8776 44.2722C72.8796 44.7574 72.6414 44.8323 72.247 44.8166C70.1207 44.7219 68.0316 44.4004 65.9991 43.7475C63.7245 43.0177 61.6158 41.9507 59.6712 40.5542C59.5481 40.4655 59.431 40.2722 59.2689 40.3511C59.0776 40.4438 59.1674 40.6706 59.1674 40.8383C59.1713 47.1775 59.1928 53.5148 59.1889 59.854C59.183 67.7949 53.8255 74.6312 46.1835 76.4852C45.2893 76.7022 44.3775 76.7909 43.4735 76.9448H40.8221H40.826Z" fill="white"/>
</g>
<defs>
<clipPath id="clip0_288_23">
<rect width="98" height="99" fill="white"/>
</clipPath>
</defs>
</svg>

<?xml version="1.0" encoding="utf-8"?>
<!-- Generator: Adobe Illustrator 28.1.0, SVG Export Plug-In . SVG Version: 6.00 Build 0)  -->
<svg version="1.1" id="Camada_1" xmlns="http://www.w3.org/2000/svg" xmlns:xlink="http://www.w3.org/1999/xlink" x="0px" y="0px"
	 viewBox="0 0 98 99" style="enable-background:new 0 0 98 99;" xml:space="preserve">
<style type="text/css">
	.st0{fill:#8C3EEF;}
</style>
<g>
	<path class="st0" d="M49,0C21.9,0,0,22.2,0,49.5C0,76.8,21.9,99,49,99s49-22.2,49-49.5C98,22.2,76.1,0,49,0z M72.2,44.8
		c-2.1-0.1-4.2-0.4-6.2-1.1c-2.3-0.7-4.4-1.8-6.3-3.2c-0.1-0.1-0.2-0.3-0.4-0.2c-0.2,0.1-0.1,0.3-0.1,0.5c0,6.3,0,12.7,0,19
		c0,7.9-5.4,14.8-13,16.6c-0.9,0.2-1.8,0.3-2.7,0.5h-2.6c-1.4-0.2-2.7-0.4-4-0.8c-6.4-2.3-10.4-6.9-11.5-13.7
		c-1.5-9.4,5.2-17.9,14.2-19.3c1.6-0.2,3.1-0.2,4.7-0.1c0.4,0,0.5,0.2,0.5,0.6c0,2.7,0,5.4,0,8.1c0,0.5-0.2,0.5-0.6,0.4
		c-4.6-1.2-9,1.7-9.9,6.3c-0.9,4.6,2.6,9.1,7.2,9.4c4.2,0.3,8.1-2.7,8.6-7.1c0.1-0.4,0-0.9,0-1.3c0-12.1,0-24.2,0-36.3
		c0-0.2,0-0.4,0-0.6c0-0.4,0.1-0.5,0.5-0.5c0.9,0,1.8,0,2.8,0c1.7,0,3.4,0,5.1,0c0.5,0,0.7,0.2,0.7,0.6c0.2,3.5,1.4,6.4,3.8,8.9
		c2.2,2.3,5,3.7,8.1,4.1c0.4,0,0.9,0.1,1.3,0.1c0.4,0,0.5,0.2,0.5,0.5c0,2.7,0,5.3,0,8C72.9,44.8,72.6,44.8,72.2,44.8z"/>
</g>
</svg>
